storage/app/icons/tabler/filled/clipboard-smile.svg

<!--
unicode: "10175"
version: "3.33"
-->
<svg
  xmlns="http://www.w3.org/2000/svg"
  width="24"
  height="24"
  viewBox="0 0 24 24"
  fill="currentColor"
>
  <path d="M17.997 4.17a3 3 0 0 1 2.003 2.83v12a3 3 0 0 1 -3 3h-10a3 3 0 0 1 -3 -3v-12a3 3 0 0 1 2.003 -2.83a4 4 0 0 0 3.997 3.83h4a4 4 0 0 0 3.98 -3.597zm-3.176 11.259a1 1 0 0 0 -1.392 -.25a2.5 2.5 0 0 1 -2.858 0a1 1 0 0 0 -1.142 1.642a4.5 4.5 0 0 0 5.142 0a1 1 0 0 0 .25 -1.392m-4.811 -3.429h-.01a1 1 0 0 0 -.117 1.993l.127 .007a1 1 0 0 0 0 -2m4 0h-.01a1 1 0 0 0 -.117 1.993l.127 .007a1 1 0 0 0 0 -2m-.01 -10a2 2 0 1 1 0 4h-4a2 2 0 1 1 0 -4z" />
</svg>

<svg xmlns="http://www.w3.org/2000/svg" width="24" height="24" fill="currentColor" viewBox="0 0 24 24"><path d="M17.997 4.17A3 3 0 0 1 20 7v12a3 3 0 0 1-3 3H7a3 3 0 0 1-3-3V7a3 3 0 0 1 2.003-2.83A4 4 0 0 0 10 8h4a4 4 0 0 0 3.98-3.597zm-3.176 11.259a1 1 0 0 0-1.392-.25 2.5 2.5 0 0 1-2.858 0 1 1 0 0 0-1.142 1.642 4.5 4.5 0 0 0 5.142 0 1 1 0 0 0 .25-1.392M10.01 12H10a1 1 0 0 0-.117 1.993l.127.007a1 1 0 0 0 0-2m4 0H14a1 1 0 0 0-.117 1.993l.127.007a1 1 0 0 0 0-2M14 2a2 2 0 1 1 0 4h-4a2 2 0 1 1 0-4z"/></svg>
